X: 14130
T: Frieze Breeches, The
R: slide
M: 12/8
K: Dmixolydian
|:A|D2E F2G|A2d cAG|A3 B2G|ABA A2F|
D2E F2G|A2d cAG|F2A G2E|D3 D3:|
|:d3 f2d|e2d cAG|A3 B2G|ABA A2B|
d2e f2d|e2d cAG|F2A G2E|D3 D2A:|

